X: 19494
T: Jackson's Rum Punch
R: jig
M: 6/8
K: Gmajor
|:d|BGE DEF|GB/c/d e2 f|ged edB|dBG A2 d|
BGE D2 E|GBd e2 f|gfe dBA|Be^d e2:|
|:d|gdg a^ga|bge edB|e/f/ge edB|dBG A2 d|
[1 g2 g a^ga|bge dcB|e^de =dBA|BGF G2:|
[2 B/c/dB A^GA|GB/c/d g2 f|gg/f/e dBA|BG/G/G G2||

